src/images/single-assets/KLIMA.svg

<svg width="200" height="200" viewBox="0 0 200 200" fill="none" xmlns="http://www.w3.org/2000/svg">
<circle cx="100" cy="100" r="94" fill="#0E0E0E"/>
<path d="M147.98 95.7756H52.9207V103.714H147.98V95.7756Z" fill="#00CC33"/>
<path d="M77.0529 143.65V151H46L78.0766 103.224H91.1412L100.452 117.141L109.666 103.224H122.925L154.124 151H123.705V143.65H140.865L116.1 106.36L100.452 130.175L84.6576 106.262L59.8446 143.65H77.0529Z" fill="#00CC33"/>
<path d="M46 48L78.0766 95.776H91.1412L100.452 81.8595L109.666 95.776H122.925L154.124 48.0001L46 48ZM59.8448 55.3501H140.865L116.1 92.6395L100.452 68.8254L84.6577 92.7379L59.8448 55.3501Z" fill="#00CC33"/>
</svg>

<svg xmlns="http://www.w3.org/2000/svg" width="200" height="200" fill="none"><circle cx="100" cy="100" r="94" fill="#0E0E0E"/><path fill="#0C3" d="M147.98 95.776H52.92v7.938h95.06z"/><path fill="#0C3" d="M77.053 143.65V151H46l32.077-47.776H91.14l9.311 13.917 9.214-13.917h13.259L154.124 151h-30.419v-7.35h17.16L116.1 106.36l-15.648 23.815-15.794-23.913-24.813 37.388zM46 48l32.077 47.776H91.14l9.311-13.916 9.214 13.916h13.259L154.124 48zm13.845 7.35h81.02L116.1 92.64l-15.648-23.815-15.794 23.913z"/></svg>
